X:1
T:Young Hunting
M:2/2
L:1/8
K:F
 G2| A2A-B c2 c2| f2 f2 _e2 dd|c-BA-B cc c2| c6 F2| A2B-A G2 E2| FFA-B c3 c|\
 _e2 c2 B2 G2|F-G-A-B c2 d2| _e2 c2 B2 G2| F6|

